assets/Sponsors/Linode-Logo-Black.svg

<svg width="507" height="132" viewBox="0 0 507 132" fill="none" xmlns="http://www.w3.org/2000/svg">
<g clip-path="url(#clip0_6:2)">
<path d="M109.65 58.21L91.44 48.14L76.07 57.52L75.88 67.11L68.41 62.19L58.25 68.38L57.81 57.9L47.33 50.9L57.33 45.73C57.25 45.73 57.33 46.73 55.85 11.39L32.2 0L0 10L7.19 44.63L18 53L9.78 56.9L15.15 83L22.7 90.09L17.3 93.38L21.49 113.56L38.43 131.5C38.51 131.4 40.21 130.09 60.22 114.18L59.64 100.47L68.22 107.75C68.34 107.63 70.06 106.36 85.78 93.86L86.39 83.72L92.87 88.22C93 88.1 94.45 87 107.13 76.89L109.65 58.21Z" fill="#231F20"/>
<path d="M94.54 69L109.65 58.21L91.44 48.14L76.07 57.52L94.54 69Z" fill="black"/>
<path d="M92.87 88.2L94.54 69L76.07 57.52L75.69 76.27L92.87 88.2Z" fill="#004B16"/>
<path d="M68.22 107.73V87.84L49.56 73.69L51.03 93.23L68.22 107.73Z" fill="#004B16"/>
<path d="M68.22 87.84L86.96 74.41L68.41 62.19L49.56 73.69L68.22 87.84Z" fill="black"/>
<path d="M38.43 131.48L35.45 111.16L17.3 93.36L21.49 113.54L38.43 131.48Z" fill="#004B16"/>
<path d="M35.45 111.16L59.36 94.1L40.83 79.01L17.3 93.36L35.45 111.16Z" fill="black"/>
<path d="M33.9 100.6L29.96 73.72L9.73999 56.91L15.15 82.98L33.9 100.6Z" fill="#004B16"/>
<path d="M29.96 73.72L57.81 57.9L37.01 43.96L9.73999 56.91L29.96 73.72Z" fill="black"/>
<path d="M28.07 60.88L22.67 24.07L0 10.01L7.19 44.63L28.07 60.88Z" fill="#004B16"/>
<path d="M22.67 24.07L55.81 11.37L32.2 0L0 10.01L22.67 24.07Z" fill="black"/>
<path d="M107.13 76.87C93.11 88 92.8 88.2 92.87 88.2C94.61 68.1 94.46 69 94.54 69C110.54 57.55 109.54 58.21 109.65 58.21L107.13 76.87Z" fill="#1CB35C"/>
<path d="M85.78 93.84C68.43 107.64 68.15 107.73 68.22 107.73C68.05 86.91 68.15 87.84 68.22 87.84C88.22 73.54 86.89 74.41 86.96 74.41L85.78 93.84Z" fill="#1CB35C"/>
<path d="M60.22 114.16C38.56 131.38 38.36 131.48 38.43 131.48C35.36 110.54 35.43 111.16 35.43 111.16C60.9 93 59.29 94.1 59.36 94.1L60.22 114.16Z" fill="#1CB35C"/>
<path d="M55.81 11.37C57.33 46.74 57.21 45.71 57.29 45.71C28.63 60.6 28 60.88 28.07 60.88C22.55 23.25 22.6 24.07 22.67 24.07L55.81 11.37Z" fill="#1CB35C"/>
<path d="M57.81 57.9C58.96 84.71 58.81 83.78 58.92 83.78C34.11 100.45 33.83 100.6 33.92 100.6C29.92 73.02 29.92 73.72 29.98 73.72L57.81 57.9Z" fill="#1CB35C"/>
<path d="M151.61 14.24L168.19 10.24V90.12C168.19 98.8733 170.8 104.09 176.02 105.77C173.46 110.643 169.083 113.077 162.89 113.07C155.37 113.07 151.61 107.85 151.61 97.41V14.24Z" fill="white"/>
<path d="M186.66 111.72V54.3H177.58V40.7H203.44V111.7L186.66 111.72ZM195.22 13.18C197.123 13.18 198.983 13.7442 200.565 14.8013C202.147 15.8583 203.38 17.3608 204.108 19.1186C204.836 20.8764 205.026 22.8107 204.655 24.6768C204.284 26.5429 203.368 28.257 202.022 29.6024C200.677 30.9477 198.963 31.864 197.097 32.2351C195.231 32.6063 193.296 32.4158 191.539 31.6877C189.781 30.9596 188.278 29.7266 187.221 28.1446C186.164 26.5626 185.6 24.7026 185.6 22.8C185.603 20.2494 186.617 17.8041 188.421 16.0005C190.224 14.197 192.669 13.1826 195.22 13.18V13.18Z" fill="white"/>
<path d="M262.94 111.74V70.68C262.94 64.63 261.78 60.2 259.46 57.42C257.14 54.64 253.35 53.24 248.09 53.24C245.366 53.3185 242.697 54.0234 240.29 55.3C237.772 56.4783 235.561 58.2239 233.83 60.4V111.74H217.24V40.74H229.18L232.18 47.38C236.687 42.0467 243.353 39.38 252.18 39.38C260.62 39.38 267.287 41.91 272.18 46.97C277.073 52.03 279.517 59.0933 279.51 68.16V111.74H262.94Z" fill="white"/>
<path d="M288.42 76.06C288.42 65.22 291.547 56.3967 297.8 49.59C304.053 42.7833 312.31 39.38 322.57 39.38C333.363 39.38 341.743 42.6533 347.71 49.2C353.677 55.7467 356.677 64.7 356.71 76.06C356.71 87.3933 353.67 96.3933 347.59 103.06C341.51 109.727 333.177 113.06 322.59 113.06C311.803 113.06 303.413 109.687 297.42 102.94C291.427 96.1933 288.427 87.2333 288.42 76.06V76.06ZM305.66 76.06C305.66 91.7067 311.297 99.5333 322.57 99.54C324.967 99.6155 327.345 99.0972 329.492 98.0312C331.64 96.9651 333.491 95.3845 334.88 93.43C337.913 89.37 339.427 83.58 339.42 76.06C339.42 60.6333 333.803 52.9167 322.57 52.91C320.173 52.8351 317.794 53.3515 315.644 54.4136C313.493 55.4757 311.637 57.0508 310.24 59C307.187 63.0733 305.66 68.76 305.66 76.06V76.06Z" fill="white"/>
<path d="M412.37 111.74V107.43C411 108.93 408.66 110.25 405.37 111.38C402.103 112.499 398.673 113.07 395.22 113.07C385.307 113.07 377.513 109.93 371.84 103.65C366.167 97.37 363.327 88.6133 363.32 77.38C363.32 66.1533 366.58 57.0133 373.1 49.96C376.183 46.5359 379.969 43.818 384.199 41.992C388.429 40.166 393.004 39.275 397.61 39.38C402.71 39.3116 407.753 40.4491 412.33 42.7V14.24L428.91 10.24V111.74H412.37ZM412.37 57.68C409.281 55.0291 405.369 53.5307 401.3 53.44C394.633 53.44 389.523 55.4633 385.97 59.51C382.417 63.5567 380.627 69.36 380.6 76.92C380.6 91.6867 387.72 99.07 401.96 99.07C403.989 98.9709 405.98 98.4891 407.83 97.65C410.15 96.65 411.66 95.73 412.37 94.76V57.68Z" fill="white"/>
<path d="M505.55 81.3H454.81C455.117 86.96 457.06 91.36 460.64 94.5C464.22 97.64 469.04 99.2067 475.1 99.2C482.66 99.2 488.41 97.2333 492.35 93.3L498.78 106C492.947 110.727 484.237 113.093 472.65 113.1C461.817 113.1 453.25 109.927 446.95 103.58C440.65 97.2333 437.5 88.3733 437.5 77C437.5 65.8133 440.96 56.7467 447.88 49.8C451.097 46.4528 454.967 43.8017 459.25 42.0111C463.533 40.2204 468.138 39.3283 472.78 39.39C483.08 39.39 491.35 42.4633 497.59 48.61C503.83 54.7567 506.947 62.5833 506.94 72.09C506.788 75.1989 506.322 78.2845 505.55 81.3V81.3ZM455.4 68.83H490.29C489.137 58.4433 483.39 53.2467 473.05 53.24C463.583 53.24 457.7 58.4367 455.4 68.83Z" fill="white"/>
</g>
<defs>
<clipPath id="clip0_6:2">
<rect width="506.94" height="131.5" fill="white"/>
</clipPath>
</defs>
</svg>

<svg viewBox="0 0 506.94 131.5" xmlns="http://www.w3.org/2000/svg"><path d="m109.65 58.21-18.21-10.07-15.37 9.38-.19 9.59-7.47-4.92-10.16 6.19-.44-10.48-10.48-7 10-5.17c-.08 0 0 1-1.48-34.34l-23.65-11.39-32.2 10 7.19 34.63 10.81 8.37-8.22 3.9 5.37 26.1 7.55 7.09-5.4 3.29 4.19 20.18 16.94 17.94c.08-.1 1.78-1.41 21.79-17.32l-.58-13.71 8.58 7.28c.12-.12 1.84-1.39 17.56-13.89l.61-10.14 6.48 4.5c.13-.12 1.58-1.22 14.26-11.33z" fill="#231f20"/><path d="m94.54 69 15.11-10.79-18.21-10.07-15.37 9.38z"/><path d="m92.87 88.2 1.67-19.2-18.47-11.48-.38 18.75z" fill="#004b16"/><path d="m68.22 107.73v-19.89l-18.66-14.15 1.47 19.54z" fill="#004b16"/><path d="m68.22 87.84 18.74-13.43-18.55-12.22-18.85 11.5z"/><path d="m38.43 131.48-2.98-20.32-18.15-17.8 4.19 20.18z" fill="#004b16"/><path d="m35.45 111.16 23.91-17.06-18.53-15.09-23.53 14.35z"/><path d="m33.9 100.6-3.94-26.88-20.22-16.81 5.41 26.07z" fill="#004b16"/><path d="m29.96 73.72 27.85-15.82-20.8-13.94-27.27 12.95z"/><path d="m28.07 60.88-5.4-36.81-22.67-14.06 7.19 34.62z" fill="#004b16"/><path d="m22.67 24.07 33.14-12.7-23.61-11.37-32.2 10.01z"/><g fill="#1cb35c"><path d="m107.13 76.87c-14.02 11.13-14.33 11.33-14.26 11.33 1.74-20.1 1.59-19.2 1.67-19.2 16-11.45 15-10.79 15.11-10.79z"/><path d="m85.78 93.84c-17.35 13.8-17.63 13.89-17.56 13.89-.17-20.82-.07-19.89 0-19.89 20-14.3 18.67-13.43 18.74-13.43z"/><path d="m60.22 114.16c-21.66 17.22-21.86 17.32-21.79 17.32-3.07-20.94-3-20.32-3-20.32 25.47-18.16 23.86-17.06 23.93-17.06z"/><path d="m55.81 11.37c1.52 35.37 1.4 34.34 1.48 34.34-28.66 14.89-29.29 15.17-29.22 15.17-5.52-37.63-5.47-36.81-5.4-36.81z"/><path d="m57.81 57.9c1.15 26.81 1 25.88 1.11 25.88-24.81 16.67-25.09 16.82-25 16.82-4-27.58-4-26.88-3.94-26.88z"/></g><path d="m151.61 14.24 16.58-4v79.88q0 13.13 7.83 15.65-3.84 7.31-13.13 7.3-11.28 0-11.28-15.66z"/><path d="m186.66 111.72v-57.42h-9.08v-13.6h25.86v71zm8.56-98.54a9.62 9.62 0 1 1 -9.62 9.62 9.63 9.63 0 0 1 9.62-9.62z"/><path d="m262.94 111.74v-41.06c0-6.05-1.16-10.48-3.48-13.26s-6.11-4.18-11.37-4.18a17.74 17.74 0 0 0 -7.8 2.06 18 18 0 0 0 -6.46 5.1v51.34h-16.59v-71h11.94l3 6.64q6.76-8 20-8 12.66 0 20 7.59t7.33 21.19v43.58z"/><path d="m288.42 76.06q0-16.26 9.38-26.47t24.77-10.21q16.19 0 25.14 9.82t9 26.86q0 17-9.12 27t-25 10q-16.18 0-25.17-10.12t-9-26.88zm17.24 0q0 23.47 16.91 23.48a14.54 14.54 0 0 0 12.31-6.11q4.55-6.09 4.54-17.37 0-23.14-16.85-23.15a14.61 14.61 0 0 0 -12.33 6.09q-4.58 6.11-4.58 17.06z"/><path d="m412.37 111.74v-4.31c-1.37 1.5-3.71 2.82-7 3.95a31.33 31.33 0 0 1 -10.15 1.69q-14.87 0-23.38-9.42t-8.52-26.27q0-16.84 9.78-27.42a32 32 0 0 1 24.51-10.58 32.37 32.37 0 0 1 14.72 3.32v-28.46l16.58-4v101.5zm0-54.06a17.6 17.6 0 0 0 -11.07-4.24q-10 0-15.33 6.07t-5.37 17.41q0 22.15 21.36 22.15a16.11 16.11 0 0 0 5.87-1.42c2.32-1 3.83-1.92 4.54-2.89z"/><path d="m505.55 81.3h-50.74q.46 8.49 5.83 13.2t14.46 4.7q11.34 0 17.25-5.9l6.43 12.7q-8.75 7.09-26.13 7.1-16.25 0-25.7-9.52t-9.45-26.58q0-16.78 10.38-27.2a33.91 33.91 0 0 1 24.9-10.41q15.45 0 24.81 9.22t9.35 23.48a46.28 46.28 0 0 1 -1.39 9.21zm-50.15-12.47h34.89q-1.73-15.58-17.24-15.59-14.2 0-17.65 15.59z"/></svg>
